X: 2
T: The Star of Munster
C: Trad. Ireland
N: RJ R-159
M: C|
L: 1/8
K: Ador
"^A"|:\
"Am"c3A "G"BAGB | "Am"AGEF "G"GED2|"Am"EAAB cBcd | eaaf "Em"gfed |
"Am"cBAc "G"BAGB | "Am"AGEF "G"GED2| "Am"EAAB cBcd  | "Em"edcB "Am"A4 :|
"^B"|:\
"Am"a3b ageg | agab agef|"G"g2ga gfef|gfga gfe2 |
"Am"a3b ageg | agab agef| "G"g4 "Am"a4 |[1 "G"b3a gfe2 :|[2 "G"b3a "Em"gfed |]\
["transition" "G"B4 "A"^c4 ||

% X: 3
% T: the Star of Munster Lower Octave (Replaces B part last time through and as needed for fun)
% M: C|
% L: 1/8
% K: Ador
% |:\
% "Am"A3B AGEG | AGAB AGEF | "G"G2GA GFEF | GFGA GFE2 | "Am"A3B AGEG |
% AGAB AGEF | "G"G4 "Am"A4 |[1 "G"B3A "Em"GFE2 :|[2 "G"B3A "Em"GFED |["transition" "G"B4 "A"^c4 ||


